X:6839
T:Harrow on the Hill,1st part. JNu.21
M:2/4
L:1/8
Q:200
S:James Nuttall MS,c1830?,Rossendale,East Lancs.
R:Misc.
O:England
A:East Lancashire
Z:vmp.Manchester Morris Men
K:D
"primo"Adde|ff g/f/e/d/|Aeef|fe e2|!
Adde|ff g/f/e/d/|cAAc|d>e d2::!
BG EF/G/|AF DE/F/|GFED|CE A,2|!
BG E/F/G|AFDd|cd ef|d>e d2:|]


